X: 64
T:Chris Drowney's Hornpipe
M:C|
L:1/8
R:hornpipe
K:D
D>CD>F D2 F>A|d2 B>d A>DF>A|B>DF>A F>ED>A|(3EFE (3DCB, (A,2 A,)>C|(D2 D)
>F D2 F>A|d>AB>d A>DF>D|B>DF>A F>ED>A,|1D>F (3EDC D4  :|2D>F (3EDC D>EF>
(A|
|:A)>DF>A B>DF>A|d2 f>d A>DF>D|G>BG>E F>AF>D|(3EFE (3DCB, A,3  (A,|A,)>D
F>A B,>DF>A|d2 f>d A>DF>D|B,>DF>A F>ED>A,|1D>F (3EDC D2 F>G :|2D>F (3EDC
 D4  ||
